X: 526
T: Wuge fangyang
%%abc-version 2.0
%%abcx-abcm2ps-target-version 5.9.1 (29 Sep 2008)
%%abc-creator hum2abc beta
%%abcx-conversion-date 2013/10/02 07:52:30
%%abc-edited-by Helmut Schaffrath
%%humdrum-veritas 2749283340
%%humdrum-veritas-data 2101652169
%%continueall 1
%%barnumbers 0
L: 1/8
M: 2/4
K: F
A2f d [I:setbarnb 1]| 
c4 | 
A c A D | 
F4 | 
G A c f | 
d c A3/ c/ | 
G F A D | 
C4 | 
G E G/ A/ G/ A/ | 
G G G/ A/ G/ A/ | 
F E D C | 
c4 | 
c> f d c | 
F D F A/ c/ | 
G E G G/ A/ | 
c F A D | 
C4 | 
G E z G/ A/ | 
G A G/ A/ G/ A/ | 
F E D/ E/ D/ C/ | 
C4 |]  



